images/labajainspira-itinerante/2024/logos/tendencia.svg

<svg clip-rule="evenodd" fill-rule="evenodd" stroke-linejoin="round" stroke-miterlimit="2" viewBox="0 0 356 99" xmlns="http://www.w3.org/2000/svg"><g transform="matrix(1.38687 0 0 .58673 -833.603 169.562)"><path d="m601.736-288.994h255.766v167.5h-255.766z" fill="none"/><g fill="#05263e"><path d="m0-46.214h-17.951v-11.776h47.579v11.776h-17.852v57.99h-11.776z" fill-rule="nonzero" transform="matrix(.297031 0 0 .702103 626.6390752071 -187.52040269)"/><path d="m0-69.766h43.483v11.776h-31.707v17.219h28.085v11.776h-28.085v17.219h31.707v11.776h-43.483z" fill-rule="nonzero" transform="matrix(.297031 0 0 .702103 645.539425065 -179.252437762)"/><path d="m0-16.11v42.849h-11.776v-71.587l41.939 44.849v-43.028h11.776v71.765z" fill-rule="nonzero" transform="matrix(.297031 0 0 .702103 672.78756385 -198.026671982)"/><path d="m0 46.214c12.964 0 23.117-10.232 23.117-23.117 0-12.766-10.153-23.097-23.117-23.097h-8.51v46.214zm-20.287-57.99h20.287c19.297 0 34.893 15.576 34.893 34.873 0 19.317-15.596 34.893-34.893 34.893h-20.287z" fill-rule="nonzero" transform="matrix(.297031 0 0 .702103 702.769278928 -219.9678119938)"/><path d="m0-69.766h43.483v11.776h-31.707v17.219h28.085v11.776h-28.085v17.219h31.707v11.776h-43.483z" fill-rule="nonzero" transform="matrix(.297031 0 0 .702103 723.932737678 -179.252437762)"/><path d="m0-16.11v42.849h-11.776v-71.587l41.939 44.849v-43.028h11.776v71.765z" fill-rule="nonzero" transform="matrix(.297031 0 0 .702103 751.174935843 -198.026671982)"/><path d="m0-.179c0-20.029 16.209-35.704 36.239-35.704 5.878 0 11.044 1.365 16.209 4.077v14.586c-5.165-4.611-9.876-6.709-16.387-6.709-13.419 0-24.107 10.43-24.107 23.829 0 13.241 10.411 23.829 24.008 23.829 6.986 0 11.519-2.157 16.486-6.788v14.685c-5.165 2.712-10.331 4.078-16.209 4.078-20.208 0-36.239-15.953-36.239-35.883" fill-rule="nonzero" transform="matrix(.297031 0 0 .702103 774.43454236 -203.681409544)"/><path d="m644.741 70.415h11.776v69.766h-11.776z" transform="matrix(.297031 0 0 .702103 609.416 -277.674640508)"/><path d="m0-71.587c-10.569 23.862-21.138 47.724-31.706 71.587h13.32c6.128-14.983 12.257-29.965 18.386-44.948 6.129 14.983 12.258 29.965 18.386 44.948h13.32c-10.568-23.863-21.137-47.725-31.706-71.587" fill-rule="nonzero" transform="matrix(.297031 0 0 .702103 823.433964244 -179.252437762)"/></g><path d="m0-20.477c1.539-1.085 3.267-1.628 5.183-1.628 2.835 0 5.105.997 6.811 3.001 1.705 1.994 2.558 4.375 2.558 7.121 0 2.082-.399 3.954-1.185 5.615-.797 1.672-1.894 3.101-3.311 4.308-1.418 1.207-3.079 2.127-4.995 2.747-1.916.631-3.876.941-5.869.941v-1.251c2.912-.576 5.183-1.518 6.799-2.813 1.628-1.285 2.437-3.267 2.437-5.925 0-.753-.078-1.44-.244-2.06-.166-.631-.332-1.152-.509-1.562-.742.576-1.573.975-2.492 1.185-.919.211-1.706.31-2.37.31-1.672 0-2.935-.564-3.81-1.683-.875-1.13-1.318-2.315-1.318-3.566 0-2.082.776-3.666 2.315-4.74" fill="#d1b888" fill-rule="nonzero" transform="matrix(.297031 0 0 .702103 833.607573025 -217.1181163374)"/></g></svg>

<?xml version="1.0" encoding="UTF-8" standalone="no"?>
<!DOCTYPE svg PUBLIC "-//W3C//DTD SVG 1.1//EN" "http://www.w3.org/Graphics/SVG/1.1/DTD/svg11.dtd">
<svg width="100%" height="100%" viewBox="0 0 356 99" version="1.1" xmlns="http://www.w3.org/2000/svg" xmlns:xlink="http://www.w3.org/1999/xlink" xml:space="preserve" xmlns:serif="http://www.serif.com/" style="fill-rule:evenodd;clip-rule:evenodd;stroke-linejoin:round;stroke-miterlimit:2;">
    <g transform="matrix(1,0,0,1,-987,0)">
        <g id="Artboard1" transform="matrix(1.38687,0,0,0.58673,153.397,169.562)">
            <rect x="601.736" y="-288.994" width="255.766" height="167.5" style="fill:none;"/>
            <g id="tendencia" transform="matrix(0.297031,0,0,0.702103,609.416,-276.526)">
                <g transform="matrix(1,0,0,1,57.9841,126.77)">
                    <path d="M0,-46.214L-17.951,-46.214L-17.951,-57.99L29.628,-57.99L29.628,-46.214L11.776,-46.214L11.776,11.776L0,11.776L0,-46.214Z" style="fill:rgb(5,38,62);fill-rule:nonzero;"/>
                </g>
                <g transform="matrix(1,0,0,1,121.615,138.546)">
                    <path d="M0,-69.766L43.483,-69.766L43.483,-57.99L11.776,-57.99L11.776,-40.771L39.861,-40.771L39.861,-28.995L11.776,-28.995L11.776,-11.776L43.483,-11.776L43.483,0L0,0L0,-69.766Z" style="fill:rgb(5,38,62);fill-rule:nonzero;"/>
                </g>
                <g transform="matrix(1,0,0,1,213.35,111.806)">
                    <path d="M0,-16.11L0,26.739L-11.776,26.739L-11.776,-44.848L30.163,0.001L30.163,-43.027L41.939,-43.027L41.939,28.738L0,-16.11Z" style="fill:rgb(5,38,62);fill-rule:nonzero;"/>
                </g>
                <g transform="matrix(1,0,0,1,314.288,80.5554)">
                    <path d="M0,46.214C12.964,46.214 23.117,35.982 23.117,23.097C23.117,10.331 12.964,0 0,0L-8.51,0L-8.51,46.214L0,46.214ZM-20.287,-11.776L0,-11.776C19.297,-11.776 34.893,3.8 34.893,23.097C34.893,42.414 19.297,57.99 0,57.99L-20.287,57.99L-20.287,-11.776Z" style="fill:rgb(5,38,62);fill-rule:nonzero;"/>
                </g>
                <g transform="matrix(1,0,0,1,385.538,138.546)">
                    <path d="M0,-69.766L43.483,-69.766L43.483,-57.99L11.776,-57.99L11.776,-40.771L39.861,-40.771L39.861,-28.995L11.776,-28.995L11.776,-11.776L43.483,-11.776L43.483,0L0,0L0,-69.766Z" style="fill:rgb(5,38,62);fill-rule:nonzero;"/>
                </g>
                <g transform="matrix(1,0,0,1,477.253,111.806)">
                    <path d="M0,-16.11L0,26.739L-11.776,26.739L-11.776,-44.848L30.163,0.001L30.163,-43.027L41.939,-43.027L41.939,28.738L0,-16.11Z" style="fill:rgb(5,38,62);fill-rule:nonzero;"/>
                </g>
                <g transform="matrix(1,0,0,1,555.56,103.752)">
                    <path d="M0,-0.179C0,-20.208 16.209,-35.883 36.239,-35.883C42.117,-35.883 47.283,-34.518 52.448,-31.806L52.448,-17.22C47.283,-21.831 42.572,-23.929 36.061,-23.929C22.642,-23.929 11.954,-13.499 11.954,-0.1C11.954,13.141 22.365,23.729 35.962,23.729C42.948,23.729 47.481,21.572 52.448,16.941L52.448,31.626C47.283,34.338 42.117,35.704 36.239,35.704C16.031,35.704 0,19.751 0,-0.179" style="fill:rgb(5,38,62);fill-rule:nonzero;"/>
                </g>
                <g transform="matrix(1,0,0,1,0,-1.636)">
                    <rect x="644.741" y="70.415" width="11.776" height="69.766" style="fill:rgb(5,38,62);"/>
                </g>
                <g transform="matrix(1,0,0,1,720.524,138.546)">
                    <path d="M0,-71.587C-10.569,-47.725 -21.138,-23.863 -31.706,0L-18.386,0C-12.258,-14.983 -6.129,-29.965 0,-44.948C6.129,-29.965 12.258,-14.983 18.386,0L31.706,0C21.138,-23.863 10.569,-47.725 0,-71.587" style="fill:rgb(5,38,62);fill-rule:nonzero;"/>
                </g>
                <g transform="matrix(1,0,0,1,754.775,84.6142)">
                    <path d="M0,-20.477C1.539,-21.562 3.267,-22.105 5.183,-22.105C8.018,-22.105 10.288,-21.108 11.994,-19.104C13.699,-17.11 14.552,-14.729 14.552,-11.983C14.552,-9.901 14.153,-8.029 13.367,-6.368C12.57,-4.696 11.473,-3.267 10.056,-2.06C8.638,-0.853 6.977,0.067 5.061,0.687C3.145,1.318 1.185,1.628 -0.808,1.628L-0.808,0.377C2.104,-0.199 4.375,-1.141 5.991,-2.436C7.619,-3.721 8.428,-5.703 8.428,-8.361C8.428,-9.114 8.35,-9.801 8.184,-10.421C8.018,-11.052 7.852,-11.573 7.675,-11.983C6.933,-11.407 6.102,-11.008 5.183,-10.798C4.264,-10.587 3.477,-10.488 2.813,-10.488C1.141,-10.488 -0.122,-11.052 -0.997,-12.171C-1.872,-13.301 -2.315,-14.486 -2.315,-15.737C-2.315,-17.819 -1.539,-19.403 0,-20.477" style="fill:rgb(209,184,136);fill-rule:nonzero;"/>
                </g>
            </g>
        </g>
    </g>
</svg>
